X: 300
T: Hon.le Miss Onslows fancy
%R: reel
Z: 2014 John Chambers <jc:trillian.mit.edu>
B: Preston "Twenty four Country Dances for the Year 1796" p.130#2
F: http://www.vwml.org/browse/browse-collections-dance-tune-books/browse-prestons1796# 2014-8-10
N: The 2nd strain has initial repeat but no final repeat; not fixed.
M: C|
L: 1/8
K: G
c |\
BGdc Bcde | ADAG FGAc |\
BGDC B,GA,F | GEDC B,G,2 :|\
|: f |\
gdeg dgBG | cABG FA2f |
gdeg dgBG | EGFE DG2f |\
gdeg dgBG | cABG FA2B |\
(c>Bc).A (d>cd).B | egdc BG2 |]
% - - - - - - - - - - - - - - - - - - - - - - - - -
%%begintext align
%% 1st Lady Hey with the 1st & 2d Gent: .|
%% 1st Gent: Hey with his Partner & the 2d
%% Lady :| lead down the middle up again :|.
%% right & left at top :|:
%%endtext
% - - - - - - - - - - - - - - - - - - - - - - - - -

%%sep 1 1 500
%%sep 1 1 500
